groups-private.svg

<?xml version="1.0" ?><svg height="62px" version="1.1" viewBox="0 0 62 62" width="62px" xmlns="http://www.w3.org/2000/svg" xmlns:xlink="http://www.w3.org/1999/xlink"><title/><desc/><defs/><g fill="none" fill-rule="evenodd" id="Page-4" stroke="none" stroke-width="1"><g fill="#000000" id="Invisible"><path d="M54.7765,32.3395 C52.8155,34.9795 49.4595,38.5305 44.6495,41.1145 L39.5775,36.0425 C40.7845,34.3325 41.4995,32.2515 41.5005,29.9995 C41.4985,24.2005 36.7985,19.5015 31.0005,19.5015 C28.7485,19.5015 26.6675,20.2155 24.9575,21.4215 L20.8055,17.2695 C23.7515,16.1875 27.1365,15.4995 30.9995,15.5015 C40.0095,15.5095 46.3675,19.1475 50.6125,22.9505 C52.7235,24.8505 54.2815,26.7915 55.2825,28.2825 C55.7445,28.9655 56.0875,29.5575 56.3075,29.9795 C56.0105,30.5225 55.4855,31.3985 54.7765,32.3395 L54.7765,32.3395 Z M31.8835,35.4215 C31.5955,35.4675 31.3015,35.4995 31.0005,35.4995 C27.9635,35.4955 25.5045,33.0365 25.5005,29.9995 C25.5005,29.6975 25.5315,29.4035 25.5785,29.1155 L31.8835,35.4215 Z M35.9375,32.4025 L28.5965,25.0615 C29.3235,24.7065 30.1365,24.5015 31.0005,24.4995 C34.0355,24.5055 36.4945,26.9645 36.5005,29.9995 C36.4985,30.8625 36.2935,31.6755 35.9375,32.4025 L35.9375,32.4025 Z M30.9995,44.4995 C22.2275,44.4925 15.8505,40.8335 11.5395,36.9975 C9.3935,35.0855 7.7935,33.1315 6.7555,31.6375 C6.2935,30.9735 5.9415,30.4005 5.7105,29.9815 C6.0225,29.3985 6.5725,28.4815 7.3265,27.4675 C9.0975,25.0795 11.9625,22.0005 16.0245,19.5615 L21.6665,25.2035 C20.9255,26.6425 20.5005,28.2695 20.5005,29.9995 C20.5005,35.7995 25.1995,40.4975 31.0005,40.4995 C32.7295,40.4995 34.3565,40.0735 35.7955,39.3325 L39.6685,43.2055 C37.0805,44.0115 34.1955,44.5035 30.9995,44.4995 L30.9995,44.4995 Z M61.2335,28.7365 C60.8305,27.7155 60.0385,26.2835 58.6865,24.4335 C54.7045,18.9975 45.6975,10.5035 30.9995,10.5005 C25.5685,10.4965 20.9005,11.6805 16.9745,13.4385 L12.2625,8.7265 C11.2845,7.7505 9.7025,7.7505 8.7255,8.7265 C7.7505,9.7025 7.7505,11.2865 8.7255,12.2625 L12.3935,15.9305 C10.7575,16.9935 9.3035,18.1345 8.0375,19.2825 C5.5795,21.5035 3.7805,23.7475 2.5695,25.5375 C1.9655,26.4335 1.5075,27.2145 1.1805,27.8515 C1.0165,28.1725 0.8855,28.4535 0.7775,28.7305 C0.6765,29.0635 0.5475,29.1425 0.5005,29.9995 C0.5525,30.8955 0.6915,30.9675 0.7945,31.3055 C1.2115,32.2895 2.0315,33.7025 3.4115,35.5405 C7.4875,40.9425 16.5725,49.4865 30.9995,49.5005 L31.0215,49.5005 C35.7745,49.5005 39.9575,48.5585 43.5775,47.1135 L49.7365,53.2735 C50.2245,53.7615 50.8645,54.0055 51.5055,54.0055 C52.1445,54.0055 52.7855,53.7615 53.2735,53.2735 C54.2495,52.2975 54.2495,50.7155 53.2735,49.7395 L48.3185,44.7835 C50.4055,43.5445 52.2295,42.1645 53.7865,40.7745 C56.2675,38.5655 58.1065,36.3325 59.3485,34.5395 C59.9725,33.6395 60.4465,32.8545 60.7885,32.2045 C60.9595,31.8775 61.0975,31.5895 61.2145,31.2985 C61.3185,30.9615 61.4565,30.8345 61.4995,29.9995 C61.4605,29.2015 61.3315,29.0685 61.2335,28.7365 L61.2335,28.7365 Z" id="Fill-1"/></g></g></svg>

<svg height="62" viewBox="0 0 62 62" width="62" xmlns="http://www.w3.org/2000/svg">
  <title/>
  <path d="M54.776 32.34c-1.96 2.64-5.317 6.19-10.127 8.774l-5.072-5.072A10.448 10.448 0 0 0 41.502 30c-.002-5.798-4.703-10.497-10.5-10.497-2.253 0-4.334.713-6.044 1.92l-4.152-4.152c2.947-1.082 6.332-1.77 10.195-1.768 9.01.007 15.367 3.646 19.612 7.449 2.111 1.9 3.67 3.84 4.67 5.331.463.683.806 1.276 1.026 1.698a20.016 20.016 0 0 1-1.532 2.36zM31.883 35.42A5.585 5.585 0 0 1 31 35.5a5.506 5.506 0 0 1-5.5-5.5c0-.301.032-.595.078-.883l6.306 6.306zm4.055-3.018l-7.342-7.341A5.488 5.488 0 0 1 31 24.498a5.511 5.511 0 0 1 5.5 5.5 5.474 5.474 0 0 1-.563 2.404zm-4.939 12.096c-8.771-.007-15.148-3.666-19.46-7.502-2.146-1.911-3.745-3.865-4.784-5.36a19.478 19.478 0 0 1-1.045-1.655c.313-.584.862-1.5 1.617-2.514 1.77-2.389 4.636-5.468 8.698-7.907l5.642 5.642A10.44 10.44 0 0 0 20.5 30c0 5.8 4.7 10.498 10.5 10.5a10.44 10.44 0 0 0 4.795-1.167l3.873 3.873A28.864 28.864 0 0 1 31 44.498zm30.235-15.763c-.404-1.02-1.196-2.453-2.547-4.303-3.982-5.436-12.99-13.93-27.687-13.932-5.431-.005-10.1 1.18-14.026 2.938l-4.712-4.713a2.502 2.502 0 0 0-3.537 0 2.503 2.503 0 0 0 0 3.536l3.668 3.668a34.386 34.386 0 0 0-4.356 3.352 34.867 34.867 0 0 0-5.468 6.256 23.081 23.081 0 0 0-1.388 2.314 9.553 9.553 0 0 0-.404.878c-.1.334-.23.412-.277 1.27.052.895.192.968.294 1.305.417.984 1.237 2.398 2.617 4.236C7.487 40.943 16.574 49.486 31 49.5h.023c4.753 0 8.936-.942 12.556-2.387l6.158 6.16a2.493 2.493 0 0 0 1.77.731 2.499 2.499 0 0 0 1.768-4.266l-4.956-4.956a35.247 35.247 0 0 0 5.468-4.008c2.481-2.21 4.32-4.442 5.563-6.236.623-.9 1.098-1.684 1.44-2.334.17-.327.308-.615.425-.906.105-.337.242-.465.285-1.3-.038-.797-.168-.93-.266-1.262z" fill="#000" fill-rule="evenodd"/>
</svg>
